; generated by Slic3r Prusa Edition 1.39.1-prusa3d-linux64 on 2018-06-17 at 09:30:40

; 

; external perimeters extrusion width = 0.45mm
; perimeters extrusion width = 0.45mm
; infill extrusion width = 0.45mm
; solid infill extrusion width = 0.45mm
; top infill extrusion width = 0.40mm
; first layer extrusion width = 0.42mm

M107
M115 U3.1.1-RC5 ; tell printer latest fw version
M201 X1000 Y1000 Z200 E5000 ; sets maximum accelerations, mm/sec^2
M203 X200 Y200 Z12 E120 ; sets maximum feedrates, mm/sec
M204 S1250 T1250 ; sets acceleration (S) and retract acceleration (T)
M205 X10 Y10 Z0.4 E2.5 ; sets the jerk limits, mm/sec
M205 S0 T0 ; sets the minimum extruding and travel feed rate, mm/sec
M83  ; extruder relative mode
M104 S205 ; set extruder temp
M140 S60 ; set bed temp
M190 S60 ; wait for bed temp
M109 S205 ; wait for extruder temp
G28 W ; home all without mesh bed level
G80 ; mesh bed leveling
G1 Y-3.0 F1000.0 ; go outside print area
G92 E0.0
G1 X60.0 E9.0  F1000.0 ; intro line
G1 X100.0 E12.5  F1000.0 ; intro line
G92 E0.0
M221 S95
M900 K30; Filament gcode
G21 ; set units to millimeters
G90 ; use absolute coordinates
M83 ; use relative distances for extrusion
;BEFORE_LAYER_CHANGE
;0.2


G1 E-0.80000 F2100.00000
G1 Z0.600 F10200.000
;AFTER_LAYER_CHANGE
;0.2
G1 X102.249 Y55.733 F10200.000
G1 Z0.200 F10200.000
G1 E0.80000 F2100.00000
M204 S1000
G1 F1800
G1 X147.573 Y55.726 E1.42109
G1 X148.194 Y55.809 E0.01965
G1 X149.155 Y56.156 E0.03204
G1 X155.317 Y59.718 E0.22317
G1 X156.028 Y60.343 E0.02969
G1 X156.383 Y60.809 E0.01835
G1 X179.058 Y100.104 E1.42251
G1 X179.375 Y101.409 E0.04210
G1 X179.377 Y108.504 E0.22245
G1 X179.316 Y109.036 E0.01680
G1 X179.049 Y109.917 E0.02886
G1 X156.293 Y149.334 E1.42705
G1 X155.301 Y150.293 E0.04327
G1 X149.138 Y153.853 E0.22317
G1 X148.190 Y154.192 E0.03157
G1 X147.576 Y154.274 E0.01941
G1 X102.408 Y154.274 E1.41619
G1 X101.862 Y154.205 E0.01728
G1 X101.014 Y153.932 E0.02792
G1 X94.702 Y150.295 E0.22842
G1 X93.711 Y149.340 E0.04316
G1 X71.024 Y110.059 E1.42228
G1 X70.799 Y109.498 E0.01894
G1 X70.623 Y108.519 E0.03121
G1 X70.625 Y101.409 E0.22293
G1 X70.951 Y100.083 E0.04281
G1 X93.625 Y60.795 E1.42228
G1 X94.004 Y60.310 E0.01929
G1 X94.777 Y59.660 E0.03168
G1 X100.926 Y56.112 E0.22257
G1 X102.191 Y55.749 E0.04127
G1 F8160
G1 X105.300 Y55.748 E-0.76000
G1 E-0.04000 F2100.00000
G1 Z0.800 F10200.000
G1 X112.413 Y92.413 F10200.000
G1 Z0.200 F10200.000
G1 E0.80000 F2100.00000
G1 F1800
G1 X137.587 Y92.413 E0.78932
G1 X137.587 Y117.587 E0.78932
G1 X112.413 Y117.587 E0.78932
G1 X112.413 Y92.473 E0.78744
G1 X112.790 Y92.790 F10200.000
G1 F1800
G1 X137.210 Y92.790 E0.76567
G1 X137.210 Y117.210 E0.76567
G1 X112.790 Y117.210 E0.76567
G1 X112.790 Y92.850 E0.76379
G1 X112.686 Y92.404 F10200.000
G1 F8160
G1 X115.899 Y92.842 E-0.76000
G1 E-0.04000 F2100.00000
G1 Z0.800 F10200.000
G1 X117.617 Y85.587 F10200.000
G1 Z0.200 F10200.000
G1 E0.80000 F2100.00000
G1 F1800
G1 X132.383 Y85.587 E0.46295
G1 X147.787 Y58.905 E0.96601
G1 X148.134 Y59.105 E0.01254
G1 X148.184 Y59.019 E0.00314
G1 X153.229 Y61.932 E0.18267
G1 X153.179 Y62.018 E0.00312
G1 X153.526 Y62.218 E0.01254
G1 X140.033 Y85.587 E0.84607
G1 X144.413 Y85.587 E0.13732
G1 X144.413 Y101.687 E0.50480
G1 X176.313 Y101.687 E1.00020
G1 X176.313 Y102.087 E0.01254
G1 X176.413 Y102.087 E0.00314
G1 X176.413 Y107.913 E0.18267
G1 X176.313 Y107.913 E0.00314
G1 X176.313 Y108.313 E0.01254
G1 X144.413 Y108.313 E1.00020
G1 X144.413 Y124.413 E0.50480
G1 X140.033 Y124.413 E0.13732
G1 X153.526 Y147.782 E0.84607
G1 X153.179 Y147.982 E0.01254
G1 X153.229 Y148.068 E0.00313
G1 X148.184 Y150.981 E0.18267
G1 X148.134 Y150.895 E0.00313
G1 X147.787 Y151.095 E0.01254
G1 X132.383 Y124.413 E0.96602
G1 X117.617 Y124.413 E0.46295
G1 X102.213 Y151.095 E0.96601
G1 X101.866 Y150.895 E0.01254
G1 X101.816 Y150.981 E0.00314
G1 X96.771 Y148.068 E0.18267
G1 X96.821 Y147.982 E0.00313
G1 X96.474 Y147.782 E0.01254
G1 X109.967 Y124.413 E0.84607
G1 X105.587 Y124.413 E0.13732
G1 X105.587 Y108.313 E0.50480
G1 X73.687 Y108.313 E1.00020
G1 X73.687 Y107.913 E0.01254
G1 X73.587 Y107.913 E0.00314
G1 X73.587 Y102.087 E0.18267
G1 X73.687 Y102.087 E0.00314
G1 X73.687 Y101.687 E0.01254
G1 X105.587 Y101.687 E1.00020
G1 X105.587 Y85.587 E0.50480
G1 X109.967 Y85.587 E0.13732
G1 X96.474 Y62.218 E0.84607
G1 X96.821 Y62.018 E0.01254
G1 X96.771 Y61.932 E0.00313
G1 X101.816 Y59.019 E0.18267
G1 X101.866 Y59.105 E0.00313
G1 X102.213 Y58.905 E0.01254
G1 X117.587 Y85.535 E0.96413
G1 X117.835 Y85.210 F10200.000
G1 F1800
G1 X132.165 Y85.210 E0.44930
G1 X147.649 Y58.390 E0.97101
G1 X147.996 Y58.590 E0.01254
G1 X148.046 Y58.504 E0.00314
G1 X153.744 Y61.794 E0.20631
G1 X153.694 Y61.880 E0.00313
G1 X154.041 Y62.080 E0.01254
G1 X140.687 Y85.210 E0.83741
G1 X144.790 Y85.210 E0.12866
G1 X144.790 Y101.310 E0.50480
G1 X176.690 Y101.310 E1.00020
G1 X176.690 Y101.710 E0.01254
G1 X176.790 Y101.710 E0.00314
G1 X176.790 Y108.290 E0.20631
G1 X176.690 Y108.290 E0.00314
G1 X176.690 Y108.690 E0.01254
G1 X144.790 Y108.690 E1.00020
G1 X144.790 Y124.790 E0.50480
G1 X140.687 Y124.790 E0.12866
G1 X154.041 Y147.920 E0.83741
G1 X153.694 Y148.120 E0.01254
G1 X153.744 Y148.206 E0.00314
G1 X148.046 Y151.496 E0.20631
G1 X147.996 Y151.410 E0.00313
G1 X147.649 Y151.610 E0.01254
G1 X132.165 Y124.790 E0.97101
G1 X117.835 Y124.790 E0.44930
G1 X102.351 Y151.610 E0.97101
G1 X102.004 Y151.410 E0.01254
G1 X101.954 Y151.496 E0.00314
G1 X96.256 Y148.206 E0.20631
G1 X96.306 Y148.120 E0.00313
G1 X95.959 Y147.920 E0.01254
G1 X109.313 Y124.790 E0.83741
G1 X105.210 Y124.790 E0.12866
G1 X105.210 Y108.690 E0.50480
G1 X73.310 Y108.690 E1.00020
G1 X73.310 Y108.290 E0.01254
G1 X73.210 Y108.290 E0.00314
G1 X73.210 Y101.710 E0.20631
G1 X73.310 Y101.710 E0.00314
G1 X73.310 Y101.310 E0.01254
G1 X105.210 Y101.310 E1.00020
G1 X105.210 Y85.210 E0.50480
G1 X109.313 Y85.210 E0.12866
G1 X95.959 Y62.080 E0.83741
G1 X96.306 Y61.880 E0.01254
G1 X96.256 Y61.794 E0.00314
G1 X101.954 Y58.504 E0.20631
G1 X102.004 Y58.590 E0.00313
G1 X102.351 Y58.390 E0.01254
G1 X117.805 Y85.158 E0.96913
G1 X117.906 Y85.604 F10200.000
G1 X117.906 Y85.870 F10200.000
G1 F1800
G1 X124.166 Y92.130 E0.27845
G1 X124.701 Y92.130 E0.01682
G1 X118.441 Y85.870 E0.27845
G1 X118.975 Y85.870 E0.01682
G1 X125.236 Y92.130 E0.27845
G1 X125.771 Y92.130 E0.01682
G1 X119.510 Y85.870 E0.27845
G1 X120.045 Y85.870 E0.01682
G1 X126.306 Y92.130 E0.27845
G1 X126.841 Y92.130 E0.01682
G1 X120.580 Y85.870 E0.27845
G1 X121.115 Y85.870 E0.01682
G1 X127.375 Y92.130 E0.27845
G1 X127.910 Y92.130 E0.01682
G1 X121.650 Y85.870 E0.27845
G1 X122.185 Y85.870 E0.01682
G1 X128.445 Y92.130 E0.27845
G1 X128.980 Y92.130 E0.01682
G1 X122.720 Y85.870 E0.27845
G1 X123.255 Y85.870 E0.01682
G1 X129.515 Y92.130 E0.27845
G1 X130.050 Y92.130 E0.01682
G1 X123.790 Y85.870 E0.27845
G1 X124.325 Y85.870 E0.01682
G1 X130.585 Y92.130 E0.27845
G1 X131.120 Y92.130 E0.01682
G1 X124.860 Y85.870 E0.27845
G1 X125.395 Y85.870 E0.01682
G1 X131.655 Y92.130 E0.27845
G1 X132.190 Y92.130 E0.01682
G1 X125.929 Y85.870 E0.27845
G1 X126.464 Y85.870 E0.01682
G1 X132.725 Y92.130 E0.27845
G1 X133.260 Y92.130 E0.01682
G1 X126.999 Y85.870 E0.27845
G1 X127.534 Y85.870 E0.01682
G1 X133.794 Y92.130 E0.27845
G1 X134.329 Y92.130 E0.01682
G1 X128.069 Y85.870 E0.27845
G1 X128.604 Y85.870 E0.01682
G1 X134.864 Y92.130 E0.27845
G1 X135.399 Y92.130 E0.01682
G1 X129.139 Y85.870 E0.27845
G1 X129.674 Y85.870 E0.01682
G1 X135.934 Y92.130 E0.27845
G1 X136.469 Y92.130 E0.01682
G1 X130.209 Y85.870 E0.27845
G1 X130.744 Y85.870 E0.01682
G1 X137.174 Y92.300 E0.28600
G1 F8160
G1 X134.976 Y90.102 E-0.76000
G1 E-0.04000 F2100.00000
G1 Z0.800 F10200.000
G1 X144.300 Y90.867 F10200.000
G1 Z0.200 F10200.000
G1 E0.80000 F2100.00000
G1 F1800
G1 X135.019 Y81.586 E0.41280
G1 X134.823 Y81.926 E0.01232
G1 X144.130 Y91.233 E0.41396
G1 X144.130 Y91.767 E0.01682
G1 X134.627 Y82.265 E0.42267
G1 X134.432 Y82.604 E0.01232
G1 X144.130 Y92.302 E0.43138
G1 X144.130 Y92.837 E0.01682
G1 X134.236 Y82.943 E0.44009
G1 X134.040 Y83.282 E0.01232
G1 X144.130 Y93.372 E0.44880
G1 X144.130 Y93.907 E0.01682
G1 X133.844 Y83.621 E0.45751
G1 X133.648 Y83.960 E0.01232
G1 X144.130 Y94.442 E0.46621
G1 X144.130 Y94.977 E0.01682
G1 X133.453 Y84.299 E0.47492
G1 X133.257 Y84.639 E0.01232
G1 X144.130 Y95.512 E0.48363
G1 X144.130 Y96.047 E0.01682
G1 X133.061 Y84.978 E0.49234
G1 X132.865 Y85.317 E0.01232
G1 X144.130 Y96.582 E0.50105
G1 X144.130 Y97.117 E0.01682
G1 X132.669 Y85.656 E0.50976
G1 X132.546 Y85.870 E0.00777
G1 X132.348 Y85.870 E0.00621
G1 X144.130 Y97.652 E0.52403
G1 X144.130 Y98.186 E0.01682
G1 X131.814 Y85.870 E0.54783
G1 X131.279 Y85.870 E0.01682
G1 X144.130 Y98.721 E0.57162
G1 X144.130 Y99.256 E0.01682
G1 X137.870 Y92.996 E0.27845
G1 X137.870 Y93.531 E0.01682
G1 X144.130 Y99.791 E0.27845
G1 X144.130 Y100.326 E0.01682
G1 X137.870 Y94.066 E0.27845
G1 X137.870 Y94.601 E0.01682
G1 X144.130 Y100.861 E0.27845
G1 X144.130 Y101.396 E0.01682
G1 X137.870 Y95.136 E0.27845
G1 X137.870 Y95.671 E0.01682
G1 X150.229 Y108.030 E0.54974
G1 X149.694 Y108.030 E0.01682
G1 X137.870 Y96.206 E0.52594
G1 X137.870 Y96.740 E0.01682
G1 X149.160 Y108.030 E0.50215
G1 X148.625 Y108.030 E0.01682
G1 X137.870 Y97.275 E0.47836
G1 X137.870 Y97.810 E0.01682
G1 X148.090 Y108.030 E0.45457
G1 X147.555 Y108.030 E0.01682
G1 X137.870 Y98.345 E0.43077
G1 X137.870 Y98.880 E0.01682
G1 X147.020 Y108.030 E0.40698
G1 X146.485 Y108.030 E0.01682
G1 X137.870 Y99.415 E0.38319
G1 X137.870 Y99.950 E0.01682
G1 X145.950 Y108.030 E0.35940
G1 X145.415 Y108.030 E0.01682
G1 X137.870 Y100.485 E0.33560
G1 X137.870 Y101.020 E0.01682
G1 X144.880 Y108.030 E0.31181
G1 X144.345 Y108.030 E0.01682
G1 X137.870 Y101.555 E0.28802
G1 X137.870 Y102.090 E0.01682
G1 X144.130 Y108.350 E0.27845
G1 X144.130 Y108.885 E0.01682
G1 X137.870 Y102.625 E0.27845
G1 X137.870 Y103.159 E0.01682
G1 X144.130 Y109.420 E0.27845
G1 X144.130 Y109.955 E0.01682
G1 X137.870 Y103.694 E0.27845
G1 X137.870 Y104.229 E0.01682
G1 X144.130 Y110.490 E0.27845
G1 X144.130 Y111.025 E0.01682
G1 X137.870 Y104.764 E0.27845
G1 X137.870 Y105.299 E0.01682
G1 X144.130 Y111.559 E0.27845
G1 X144.130 Y112.094 E0.01682
G1 X137.870 Y105.834 E0.27845
G1 X137.870 Y106.369 E0.01682
G1 X144.130 Y112.629 E0.27845
G1 X144.130 Y113.164 E0.01682
G1 X137.870 Y106.904 E0.27845
G1 X137.870 Y107.439 E0.01682
G1 X144.130 Y113.699 E0.27845
G1 X144.130 Y114.234 E0.01682
G1 X137.870 Y107.974 E0.27845
G1 X137.870 Y108.509 E0.01682
G1 X144.130 Y114.769 E0.27845
G1 X144.130 Y115.304 E0.01682
G1 X137.870 Y109.044 E0.27845
G1 X137.870 Y109.579 E0.01682
G1 X144.130 Y115.839 E0.27845
G1 X144.130 Y116.374 E0.01682
G1 X137.870 Y110.113 E0.27845
G1 X137.870 Y110.648 E0.01682
G1 X144.130 Y116.909 E0.27845
G1 X144.130 Y117.444 E0.01682
G1 X137.870 Y111.183 E0.27845
G1 X137.870 Y111.718 E0.01682
G1 X144.130 Y117.978 E0.27845
G1 X144.130 Y118.513 E0.01682
G1 X137.870 Y112.253 E0.27845
G1 X137.870 Y112.788 E0.01682
G1 X144.130 Y119.048 E0.27845
G1 X144.130 Y119.583 E0.01682
G1 X137.870 Y113.323 E0.27845
G1 X137.870 Y113.858 E0.01682
G1 X144.130 Y120.118 E0.27845
G1 X144.130 Y120.653 E0.01682
G1 X137.870 Y114.393 E0.27845
G1 X137.870 Y114.928 E0.01682
G1 X144.130 Y121.188 E0.27845
G1 X144.130 Y121.723 E0.01682
G1 X137.870 Y115.463 E0.27845
G1 X137.870 Y115.998 E0.01682
G1 X144.130 Y122.258 E0.27845
G1 X144.130 Y122.793 E0.01682
G1 X137.870 Y116.532 E0.27845
G1 X137.870 Y117.067 E0.01682
G1 X144.130 Y123.328 E0.27845
G1 X144.130 Y123.863 E0.01682
G1 X137.870 Y117.602 E0.27845
G1 X137.870 Y117.870 E0.00841
G1 X137.603 Y117.870 E0.00841
G1 X143.863 Y124.130 E0.27845
G1 X143.328 Y124.130 E0.01682
G1 X137.068 Y117.870 E0.27845
G1 X136.533 Y117.870 E0.01682
G1 X142.793 Y124.130 E0.27845
G1 X142.258 Y124.130 E0.01682
G1 X135.998 Y117.870 E0.27845
G1 X135.463 Y117.870 E0.01682
G1 X141.723 Y124.130 E0.27845
G1 X141.188 Y124.130 E0.01682
G1 X134.928 Y117.870 E0.27845
G1 X134.393 Y117.870 E0.01682
G1 X140.653 Y124.130 E0.27845
G1 X140.118 Y124.130 E0.01682
G1 X133.858 Y117.870 E0.27845
G1 X133.323 Y117.870 E0.01682
G1 X139.953 Y124.500 E0.29488
G1 F8160
G1 X137.755 Y122.302 E-0.76000
G1 E-0.04000 F2100.00000
G1 Z0.800 F10200.000
G1 X140.684 Y125.765 F10200.000
G1 Z0.200 F10200.000
G1 E0.80000 F2100.00000
G1 F1800
G1 X132.788 Y117.870 E0.35118
G1 X132.253 Y117.870 E0.01682
G1 X141.414 Y127.031 E0.40747
G1 F8160
G1 X139.216 Y124.833 E-0.76000
G1 E-0.04000 F2100.00000
G1 Z0.800 F10200.000
G1 X142.145 Y128.297 F10200.000
G1 Z0.200 F10200.000
G1 E0.80000 F2100.00000
G1 F1800
G1 X131.718 Y117.870 E0.46377
G1 X131.183 Y117.870 E0.01682
G1 X142.876 Y129.562 E0.52006
G1 F8160
G1 X140.678 Y127.364 E-0.76000
G1 E-0.04000 F2100.00000
G1 Z0.800 F10200.000
G1 X143.607 Y130.828 F10200.000
G1 Z0.200 F10200.000
G1 E0.80000 F2100.00000
G1 F1800
G1 X130.649 Y117.870 E0.57635
G1 X130.114 Y117.870 E0.01682
G1 X144.337 Y132.093 E0.63265
G1 F8160
G1 X142.139 Y129.895 E-0.76000
G1 E-0.04000 F2100.00000
G1 Z0.800 F10200.000
G1 X145.068 Y133.359 F10200.000
G1 Z0.200 F10200.000
G1 E0.80000 F2100.00000
G1 F1800
G1 X129.579 Y117.870 E0.68894
G1 X129.044 Y117.870 E0.01682
G1 X145.799 Y134.625 E0.74524
G1 F8160
G1 X143.601 Y132.427 E-0.76000
G1 E-0.04000 F2100.00000
G1 Z0.800 F10200.000
G1 X146.529 Y135.890 F10200.000
G1 Z0.200 F10200.000
G1 E0.80000 F2100.00000
G1 F1800
G1 X128.509 Y117.870 E0.80153
G1 X127.974 Y117.870 E0.01682
G1 X147.260 Y137.156 E0.85782
G1 F8160
G1 X145.062 Y134.958 E-0.76000
G1 E-0.04000 F2100.00000
G1 Z0.800 F10200.000
G1 X147.991 Y138.422 F10200.000
G1 Z0.200 F10200.000
G1 E0.80000 F2100.00000
G1 F1800
G1 X127.439 Y117.870 E0.91412
G1 X126.904 Y117.870 E0.01682
G1 X148.722 Y139.687 E0.97041
G1 F8160
G1 X146.523 Y137.489 E-0.76000
G1 E-0.04000 F2100.00000
G1 Z0.800 F10200.000
G1 X149.452 Y140.953 F10200.000
G1 Z0.200 F10200.000
G1 E0.80000 F2100.00000
G1 F1800
G1 X126.369 Y117.870 E1.02670
G1 X125.834 Y117.870 E0.01682
G1 X132.095 Y124.130 E0.27845
G1 X131.560 Y124.130 E0.01682
G1 X125.299 Y117.870 E0.27845
G1 X124.764 Y117.870 E0.01682
G1 X131.025 Y124.130 E0.27845
G1 X130.490 Y124.130 E0.01682
G1 X124.230 Y117.870 E0.27845
G1 X123.695 Y117.870 E0.01682
G1 X129.955 Y124.130 E0.27845
G1 X129.420 Y124.130 E0.01682
G1 X123.160 Y117.870 E0.27845
G1 X122.625 Y117.870 E0.01682
G1 X128.885 Y124.130 E0.27845
G1 X128.350 Y124.130 E0.01682
G1 X122.090 Y117.870 E0.27845
G1 X121.555 Y117.870 E0.01682
G1 X127.815 Y124.130 E0.27845
G1 X127.280 Y124.130 E0.01682
G1 X121.020 Y117.870 E0.27845
G1 X120.485 Y117.870 E0.01682
G1 X126.745 Y124.130 E0.27845
G1 X126.210 Y124.130 E0.01682
G1 X119.950 Y117.870 E0.27845
G1 X119.415 Y117.870 E0.01682
G1 X125.676 Y124.130 E0.27845
G1 X125.141 Y124.130 E0.01682
G1 X118.880 Y117.870 E0.27845
G1 X118.345 Y117.870 E0.01682
G1 X124.606 Y124.130 E0.27845
G1 X124.071 Y124.130 E0.01682
G1 X117.810 Y117.870 E0.27845
G1 X117.276 Y117.870 E0.01682
G1 X123.536 Y124.130 E0.27845
G1 X123.001 Y124.130 E0.01682
G1 X116.741 Y117.870 E0.27845
G1 X116.206 Y117.870 E0.01682
G1 X122.466 Y124.130 E0.27845
G1 X121.931 Y124.130 E0.01682
G1 X115.671 Y117.870 E0.27845
G1 X115.136 Y117.870 E0.01682
G1 X121.396 Y124.130 E0.27845
G1 X120.861 Y124.130 E0.01682
G1 X114.601 Y117.870 E0.27845
G1 X114.066 Y117.870 E0.01682
G1 X120.326 Y124.130 E0.27845
G1 X119.791 Y124.130 E0.01682
G1 X113.531 Y117.870 E0.27845
G1 X112.996 Y117.870 E0.01682
G1 X119.256 Y124.130 E0.27845
G1 X118.722 Y124.130 E0.01682
G1 X105.870 Y111.278 E0.57163
G1 X105.870 Y110.744 E0.01682
G1 X112.130 Y117.004 E0.27845
G1 X112.130 Y116.469 E0.01682
G1 X105.870 Y110.209 E0.27845
G1 X105.870 Y109.674 E0.01682
G1 X112.130 Y115.934 E0.27845
G1 X112.130 Y115.399 E0.01682
G1 X105.870 Y109.139 E0.27845
G1 X105.870 Y108.604 E0.01682
G1 X112.300 Y115.034 E0.28600
G1 F8160
G1 X110.102 Y112.836 E-0.76000
G1 E-0.04000 F2100.00000
G1 Z0.800 F10200.000
G1 X109.798 Y124.300 F10200.000
G1 Z0.200 F10200.000
G1 E0.80000 F2100.00000
G1 F1800
G1 X105.870 Y120.372 E0.17470
G1 X105.870 Y120.907 E0.01682
G1 X109.093 Y124.130 E0.14336
G1 X108.558 Y124.130 E0.01682
G1 X105.870 Y121.442 E0.11957
G1 X105.870 Y121.977 E0.01682
