; generated by Slic3r Prusa Edition 1.39.1-prusa3d-linux64 on 2018-06-13 at 15:32:53

; 

; external perimeters extrusion width = 0.45mm
; perimeters extrusion width = 0.45mm
; infill extrusion width = 0.45mm
; solid infill extrusion width = 0.45mm
; top infill extrusion width = 0.40mm
; first layer extrusion width = 0.42mm

M107
M115 U3.1.1-RC5 ; tell printer latest fw version
M201 X1000 Y1000 Z200 E5000 ; sets maximum accelerations, mm/sec^2
M203 X200 Y200 Z12 E120 ; sets maximum feedrates, mm/sec
M204 S1250 T1250 ; sets acceleration (S) and retract acceleration (T)
M205 X10 Y10 Z0.4 E2.5 ; sets the jerk limits, mm/sec
M205 S0 T0 ; sets the minimum extruding and travel feed rate, mm/sec
M83  ; extruder relative mode
M104 S205 ; set extruder temp
M140 S60 ; set bed temp
M190 S60 ; wait for bed temp
M109 S205 ; wait for extruder temp
G28 W ; home all without mesh bed level
G80 ; mesh bed leveling
G1 Y-3.0 F1000.0 ; go outside print area
G92 E0.0
G1 X60.0 E9.0  F1000.0 ; intro line
G1 X100.0 E12.5  F1000.0 ; intro line
G92 E0.0
M221 S95
M900 K10; Filament gcode
G21 ; set units to millimeters
G90 ; use absolute coordinates
M83 ; use relative distances for extrusion
;BEFORE_LAYER_CHANGE
;0.2


G1 E-0.80000 F2100.00000
G1 Z0.600 F10200.000
;AFTER_LAYER_CHANGE
;0.2
G1 X110.272 Y85.587 F10200.000
G1 Z0.200 F10200.000
G1 E0.80000 F2100.00000
M204 S1000
G1 F1800
G1 X139.728 Y85.587 E1.20063
G1 X175.912 Y49.403 E2.08579
G1 X176.194 Y49.686 E0.01630
G1 X176.265 Y49.615 E0.00408
G1 X180.385 Y53.735 E0.23747
G1 X180.314 Y53.805 E0.00406
G1 X180.597 Y54.088 E0.01630
G1 X144.413 Y90.272 E2.08580
G1 X144.413 Y119.728 E1.20063
G1 X180.597 Y155.912 E2.08579
G1 X180.314 Y156.194 E0.01630
G1 X180.385 Y156.265 E0.00408
G1 X176.265 Y160.385 E0.23747
G1 X176.194 Y160.314 E0.00408
G1 X175.912 Y160.597 E0.01630
G1 X139.728 Y124.413 E2.08579
G1 X110.272 Y124.413 E1.20063
G1 X74.088 Y160.597 E2.08579
G1 X73.805 Y160.314 E0.01630
G1 X73.735 Y160.385 E0.00408
G1 X69.615 Y156.265 E0.23747
G1 X69.686 Y156.195 E0.00406
G1 X69.403 Y155.912 E0.01630
G1 X105.587 Y119.728 E2.08580
G1 X105.587 Y90.272 E1.20063
G1 X69.403 Y54.088 E2.08579
G1 X69.686 Y53.806 E0.01630
G1 X69.615 Y53.735 E0.00408
G1 X73.735 Y49.615 E0.23747
G1 X73.806 Y49.686 E0.00408
G1 X74.088 Y49.403 E0.01630
G1 X110.230 Y85.545 E2.08335
G1 X110.428 Y85.210 F10200.000
G1 F1800
G1 X139.572 Y85.210 E1.18789
G1 X175.912 Y48.870 E2.09480
G1 X176.194 Y49.153 E0.01630
G1 X176.265 Y49.082 E0.00408
G1 X180.918 Y53.735 E0.26821
G1 X180.847 Y53.805 E0.00407
G1 X181.130 Y54.088 E0.01630
G1 X144.790 Y90.428 E2.09480
G1 X144.790 Y119.572 E1.18789
G1 X181.130 Y155.912 E2.09480
G1 X180.847 Y156.194 E0.01630
G1 X180.918 Y156.265 E0.00408
G1 X176.265 Y160.918 E0.26821
G1 X176.194 Y160.847 E0.00408
G1 X175.912 Y161.130 E0.01630
G1 X139.572 Y124.790 E2.09480
G1 X110.428 Y124.790 E1.18789
G1 X74.088 Y161.130 E2.09480
G1 X73.805 Y160.847 E0.01630
G1 X73.735 Y160.918 E0.00408
G1 X69.082 Y156.265 E0.26821
G1 X69.153 Y156.195 E0.00407
G1 X68.870 Y155.912 E0.01630
G1 X105.210 Y119.572 E2.09480
G1 X105.210 Y90.428 E1.18789
G1 X68.870 Y54.088 E2.09480
G1 X69.153 Y53.806 E0.01630
G1 X69.082 Y53.735 E0.00408
G1 X73.735 Y49.082 E0.26821
G1 X73.806 Y49.153 E0.00408
G1 X74.088 Y48.870 E0.01630
G1 X110.386 Y85.168 E2.09235
G1 X110.533 Y85.596 F10200.000
G1 X110.505 Y85.700 F10200.000
G1 F1800
G1 X144.130 Y119.325 E1.94062
G1 X144.130 Y118.791 E0.02179
G1 X111.209 Y85.870 E1.90001
G1 X111.743 Y85.870 E0.02179
G1 X144.130 Y118.257 E1.86920
G1 X144.130 Y117.723 E0.02179
G1 X112.277 Y85.870 E1.83838
G1 X112.811 Y85.870 E0.02179
G1 X144.130 Y117.189 E1.80757
G1 X144.130 Y116.655 E0.02179
G1 X113.345 Y85.870 E1.77676
G1 X113.879 Y85.870 E0.02179
G1 X144.130 Y116.121 E1.74594
G1 X144.130 Y115.587 E0.02179
G1 X114.413 Y85.870 E1.71513
G1 X114.946 Y85.870 E0.02179
G1 X144.130 Y115.054 E1.68431
G1 X144.130 Y114.520 E0.02179
G1 X115.480 Y85.870 E1.65350
G1 X116.014 Y85.870 E0.02179
G1 X144.130 Y113.986 E1.62268
G1 X144.130 Y113.452 E0.02179
G1 X116.548 Y85.870 E1.59187
G1 X117.082 Y85.870 E0.02179
G1 X144.130 Y112.918 E1.56105
G1 X144.130 Y112.384 E0.02179
G1 X117.616 Y85.870 E1.53024
G1 X118.150 Y85.870 E0.02179
G1 X144.130 Y111.850 E1.49942
G1 X144.130 Y111.316 E0.02179
G1 X118.684 Y85.870 E1.46861
G1 X119.218 Y85.870 E0.02179
G1 X144.130 Y110.782 E1.43779
G1 X144.130 Y110.248 E0.02179
G1 X119.752 Y85.870 E1.40698
G1 X120.286 Y85.870 E0.02179
G1 X144.130 Y109.714 E1.37617
G1 X144.130 Y109.180 E0.02179
G1 X120.820 Y85.870 E1.34535
G1 X121.353 Y85.870 E0.02179
G1 X144.130 Y108.647 E1.31454
G1 X144.130 Y108.113 E0.02179
G1 X121.887 Y85.870 E1.28372
G1 X122.421 Y85.870 E0.02179
G1 X144.130 Y107.579 E1.25291
G1 X144.130 Y107.045 E0.02179
G1 X122.955 Y85.870 E1.22209
G1 X123.489 Y85.870 E0.02179
G1 X144.130 Y106.511 E1.19128
G1 X144.130 Y105.977 E0.02179
G1 X124.023 Y85.870 E1.16046
G1 X124.557 Y85.870 E0.02179
G1 X144.130 Y105.443 E1.12965
G1 X144.130 Y104.909 E0.02179
G1 X125.091 Y85.870 E1.09883
G1 X125.625 Y85.870 E0.02179
G1 X144.130 Y104.375 E1.06802
G1 X144.130 Y103.841 E0.02179
G1 X126.159 Y85.870 E1.03720
G1 X126.693 Y85.870 E0.02179
G1 X144.130 Y103.307 E1.00639
G1 X144.130 Y102.773 E0.02179
G1 X127.227 Y85.870 E0.97558
G1 X127.760 Y85.870 E0.02179
G1 X144.130 Y102.240 E0.94476
G1 X144.130 Y101.706 E0.02179
G1 X128.294 Y85.870 E0.91395
G1 X128.828 Y85.870 E0.02179
G1 X144.130 Y101.172 E0.88313
G1 X144.130 Y100.638 E0.02179
G1 X129.362 Y85.870 E0.85232
G1 X129.896 Y85.870 E0.02179
G1 X144.130 Y100.104 E0.82150
G1 X144.130 Y99.570 E0.02179
G1 X130.430 Y85.870 E0.79069
G1 X130.964 Y85.870 E0.02179
G1 X144.130 Y99.036 E0.75987
G1 X144.130 Y98.502 E0.02179
G1 X131.498 Y85.870 E0.72906
G1 X132.032 Y85.870 E0.02179
G1 X144.130 Y97.968 E0.69824
G1 X144.130 Y97.434 E0.02179
G1 X132.566 Y85.870 E0.66743
G1 X133.100 Y85.870 E0.02179
G1 X144.130 Y96.900 E0.63662
G1 X144.130 Y96.366 E0.02179
G1 X133.634 Y85.870 E0.60580
G1 X134.167 Y85.870 E0.02179
G1 X144.130 Y95.833 E0.57499
G1 X144.130 Y95.299 E0.02179
G1 X134.701 Y85.870 E0.54417
G1 X135.235 Y85.870 E0.02179
G1 X144.130 Y94.765 E0.51336
G1 X144.130 Y94.231 E0.02179
G1 X135.769 Y85.870 E0.48254
G1 X136.303 Y85.870 E0.02179
G1 X144.130 Y93.697 E0.45173
G1 X144.130 Y93.163 E0.02179
G1 X136.837 Y85.870 E0.42091
G1 X137.371 Y85.870 E0.02179
G1 X144.130 Y92.629 E0.39010
G1 X144.130 Y92.095 E0.02179
G1 X137.905 Y85.870 E0.35928
G1 X138.439 Y85.870 E0.02179
G1 X144.130 Y91.561 E0.32847
G1 X144.130 Y91.027 E0.02179
G1 X138.973 Y85.870 E0.29765
G1 X139.507 Y85.870 E0.02179
G1 X144.130 Y90.493 E0.26684
G1 X144.130 Y90.155 E0.01380
G1 X144.228 Y90.057 E0.00565
G1 X139.943 Y85.772 E0.24732
G1 X140.210 Y85.505 E0.01541
G1 X144.495 Y89.790 E0.24732
G1 X144.762 Y89.523 E0.01541
G1 X140.477 Y85.238 E0.24732
G1 X140.744 Y84.971 E0.01541
G1 X145.029 Y89.256 E0.24732
G1 X145.296 Y88.989 E0.01541
G1 X141.011 Y84.704 E0.24732
G1 X141.278 Y84.437 E0.01541
G1 X145.563 Y88.722 E0.24732
G1 X145.830 Y88.456 E0.01541
G1 X141.544 Y84.170 E0.24732
G1 X141.811 Y83.903 E0.01541
G1 X146.097 Y88.189 E0.24732
G1 X146.364 Y87.922 E0.01541
G1 X142.078 Y83.636 E0.24732
G1 X142.345 Y83.369 E0.01541
G1 X146.631 Y87.655 E0.24732
G1 X146.898 Y87.388 E0.01541
G1 X142.612 Y83.102 E0.24732
G1 X142.879 Y82.835 E0.01541
G1 X147.165 Y87.121 E0.24732
G1 X147.431 Y86.854 E0.01541
G1 X143.146 Y82.569 E0.24732
G1 X143.413 Y82.302 E0.01541
G1 X147.698 Y86.587 E0.24732
G1 X147.965 Y86.320 E0.01541
G1 X143.680 Y82.035 E0.24732
G1 X143.947 Y81.768 E0.01541
G1 X148.232 Y86.053 E0.24732
G1 X148.499 Y85.786 E0.01541
G1 X144.214 Y81.501 E0.24732
G1 X144.481 Y81.234 E0.01541
G1 X148.766 Y85.519 E0.24732
G1 X149.033 Y85.252 E0.01541
G1 X144.748 Y80.967 E0.24732
G1 X145.015 Y80.700 E0.01541
G1 X149.300 Y84.985 E0.24732
G1 X149.567 Y84.718 E0.01541
G1 X145.282 Y80.433 E0.24732
G1 X145.549 Y80.166 E0.01541
G1 X149.834 Y84.451 E0.24732
G1 X150.101 Y84.184 E0.01541
G1 X145.816 Y79.899 E0.24732
G1 X146.083 Y79.632 E0.01541
G1 X150.368 Y83.917 E0.24732
G1 X150.635 Y83.650 E0.01541
G1 X146.350 Y79.365 E0.24732
G1 X146.617 Y79.098 E0.01541
G1 X150.902 Y83.383 E0.24732
G1 X151.169 Y83.116 E0.01541
G1 X146.884 Y78.831 E0.24732
G1 X147.151 Y78.564 E0.01541
G1 X151.436 Y82.849 E0.24732
G1 X151.703 Y82.582 E0.01541
G1 X147.418 Y78.297 E0.24732
G1 X147.685 Y78.030 E0.01541
G1 X151.970 Y82.315 E0.24732
G1 X152.237 Y82.048 E0.01541
G1 X147.952 Y77.763 E0.24732
G1 X148.218 Y77.496 E0.01541
G1 X152.504 Y81.782 E0.24732
G1 X152.771 Y81.515 E0.01541
G1 X148.485 Y77.229 E0.24732
G1 X148.752 Y76.962 E0.01541
G1 X153.038 Y81.248 E0.24732
G1 X153.305 Y80.981 E0.01541
G1 X149.019 Y76.695 E0.24732
G1 X149.286 Y76.428 E0.01541
G1 X153.572 Y80.714 E0.24732
G1 X153.838 Y80.447 E0.01541
G1 X149.553 Y76.162 E0.24732
G1 X149.820 Y75.895 E0.01541
G1 X154.105 Y80.180 E0.24732
G1 X154.372 Y79.913 E0.01541
G1 X150.087 Y75.628 E0.24732
G1 X150.354 Y75.361 E0.01541
G1 X154.639 Y79.646 E0.24732
G1 X154.906 Y79.379 E0.01541
G1 X150.621 Y75.094 E0.24732
G1 X150.888 Y74.827 E0.01541
G1 X155.173 Y79.112 E0.24732
G1 X155.440 Y78.845 E0.01541
G1 X151.155 Y74.560 E0.24732
G1 X151.422 Y74.293 E0.01541
G1 X155.707 Y78.578 E0.24732
G1 X155.974 Y78.311 E0.01541
G1 X151.689 Y74.026 E0.24732
G1 X151.956 Y73.759 E0.01541
G1 X156.241 Y78.044 E0.24732
G1 X156.508 Y77.777 E0.01541
G1 X152.223 Y73.492 E0.24732
G1 X152.490 Y73.225 E0.01541
G1 X156.775 Y77.510 E0.24732
G1 X157.042 Y77.243 E0.01541
G1 X152.757 Y72.958 E0.24732
G1 X153.024 Y72.691 E0.01541
G1 X157.309 Y76.976 E0.24732
G1 X157.576 Y76.709 E0.01541
G1 X153.291 Y72.424 E0.24732
G1 X153.558 Y72.157 E0.01541
G1 X157.843 Y76.442 E0.24732
G1 X158.110 Y76.175 E0.01541
G1 X153.825 Y71.890 E0.24732
G1 X154.092 Y71.623 E0.01541
G1 X158.377 Y75.908 E0.24732
G1 X158.644 Y75.641 E0.01541
G1 X154.359 Y71.356 E0.24732
G1 X154.625 Y71.089 E0.01541
G1 X158.911 Y75.375 E0.24732
G1 X159.178 Y75.108 E0.01541
G1 X154.892 Y70.822 E0.24732
G1 X155.159 Y70.555 E0.01541
G1 X159.445 Y74.841 E0.24732
G1 X159.712 Y74.574 E0.01541
G1 X155.426 Y70.288 E0.24732
G1 X155.693 Y70.021 E0.01541
G1 X159.979 Y74.307 E0.24732
G1 X160.246 Y74.040 E0.01541
G1 X155.960 Y69.754 E0.24732
G1 X156.227 Y69.488 E0.01541
G1 X160.512 Y73.773 E0.24732
G1 X160.779 Y73.506 E0.01541
G1 X156.494 Y69.221 E0.24732
G1 X156.761 Y68.954 E0.01541
G1 X161.046 Y73.239 E0.24732
G1 X161.313 Y72.972 E0.01541
G1 X157.028 Y68.687 E0.24732
G1 X157.295 Y68.420 E0.01541
G1 X161.580 Y72.705 E0.24732
G1 X161.847 Y72.438 E0.01541
G1 X157.562 Y68.153 E0.24732
G1 X157.829 Y67.886 E0.01541
G1 X162.114 Y72.171 E0.24732
G1 X162.381 Y71.904 E0.01541
G1 X158.096 Y67.619 E0.24732
G1 X158.363 Y67.352 E0.01541
G1 X162.648 Y71.637 E0.24732
G1 X162.915 Y71.370 E0.01541
G1 X158.630 Y67.085 E0.24732
G1 X158.897 Y66.818 E0.01541
G1 X163.182 Y71.103 E0.24732
G1 X163.449 Y70.836 E0.01541
G1 X159.164 Y66.551 E0.24732
G1 X159.431 Y66.284 E0.01541
G1 X163.716 Y70.569 E0.24732
G1 X163.983 Y70.302 E0.01541
G1 X159.698 Y66.017 E0.24732
G1 X159.965 Y65.750 E0.01541
G1 X164.250 Y70.035 E0.24732
G1 X164.517 Y69.768 E0.01541
G1 X160.232 Y65.483 E0.24732
G1 X160.499 Y65.216 E0.01541
G1 X164.784 Y69.501 E0.24732
G1 X165.051 Y69.234 E0.01541
G1 X160.766 Y64.949 E0.24732
G1 X161.033 Y64.682 E0.01541
G1 X165.318 Y68.967 E0.24732
G1 X165.585 Y68.701 E0.01541
G1 X161.299 Y64.415 E0.24732
G1 X161.566 Y64.148 E0.01541
G1 X165.852 Y68.434 E0.24732
G1 X166.119 Y68.167 E0.01541
G1 X161.833 Y63.881 E0.24732
G1 X162.100 Y63.614 E0.01541
G1 X166.386 Y67.900 E0.24732
G1 X166.653 Y67.633 E0.01541
G1 X162.367 Y63.347 E0.24732
G1 X162.634 Y63.081 E0.01541
G1 X166.919 Y67.366 E0.24732
G1 X167.186 Y67.099 E0.01541
G1 X162.901 Y62.814 E0.24732
G1 X163.168 Y62.547 E0.01541
G1 X167.453 Y66.832 E0.24732
G1 X167.720 Y66.565 E0.01541
G1 X163.435 Y62.280 E0.24732
G1 X163.702 Y62.013 E0.01541
G1 X167.987 Y66.298 E0.24732
G1 X168.254 Y66.031 E0.01541
G1 X163.969 Y61.746 E0.24732
G1 X164.236 Y61.479 E0.01541
G1 X168.521 Y65.764 E0.24732
G1 X168.788 Y65.497 E0.01541
G1 X164.503 Y61.212 E0.24732
G1 X164.770 Y60.945 E0.01541
G1 X169.055 Y65.230 E0.24732
G1 X169.322 Y64.963 E0.01541
G1 X165.037 Y60.678 E0.24732
G1 X165.304 Y60.411 E0.01541
G1 X169.589 Y64.696 E0.24732
G1 X169.856 Y64.429 E0.01541
G1 X165.571 Y60.144 E0.24732
G1 X165.838 Y59.877 E0.01541
G1 X170.123 Y64.162 E0.24732
G1 X170.390 Y63.895 E0.01541
G1 X166.105 Y59.610 E0.24732
G1 X166.372 Y59.343 E0.01541
G1 X170.657 Y63.628 E0.24732
G1 X170.924 Y63.361 E0.01541
G1 X166.639 Y59.076 E0.24732
G1 X166.906 Y58.809 E0.01541
G1 X171.191 Y63.094 E0.24732
G1 X171.458 Y62.827 E0.01541
G1 X167.173 Y58.542 E0.24732
G1 X167.440 Y58.275 E0.01541
G1 X171.725 Y62.560 E0.24732
G1 X171.992 Y62.294 E0.01541
G1 X167.706 Y58.008 E0.24732
G1 X167.973 Y57.741 E0.01541
G1 X172.259 Y62.027 E0.24732
G1 X172.526 Y61.760 E0.01541
G1 X168.240 Y57.474 E0.24732
G1 X168.507 Y57.207 E0.01541
G1 X172.793 Y61.493 E0.24732
G1 X173.060 Y61.226 E0.01541
G1 X168.774 Y56.940 E0.24732
G1 X169.041 Y56.674 E0.01541
G1 X173.326 Y60.959 E0.24732
G1 X173.593 Y60.692 E0.01541
G1 X169.308 Y56.407 E0.24732
G1 X169.575 Y56.140 E0.01541
G1 X173.860 Y60.425 E0.24732
G1 X174.127 Y60.158 E0.01541
G1 X169.842 Y55.873 E0.24732
G1 X170.109 Y55.606 E0.01541
G1 X174.394 Y59.891 E0.24732
G1 X174.661 Y59.624 E0.01541
G1 X170.376 Y55.339 E0.24732
G1 X170.643 Y55.072 E0.01541
G1 X174.928 Y59.357 E0.24732
G1 X175.195 Y59.090 E0.01541
G1 X170.910 Y54.805 E0.24732
G1 X171.177 Y54.538 E0.01541
G1 X175.462 Y58.823 E0.24732
G1 X175.729 Y58.556 E0.01541
G1 X171.444 Y54.271 E0.24732
G1 X171.711 Y54.004 E0.01541
G1 X175.996 Y58.289 E0.24732
G1 X176.263 Y58.022 E0.01541
G1 X171.978 Y53.737 E0.24732
G1 X172.245 Y53.470 E0.01541
G1 X176.530 Y57.755 E0.24732
G1 X176.797 Y57.488 E0.01541
G1 X172.512 Y53.203 E0.24732
G1 X172.779 Y52.936 E0.01541
G1 X177.064 Y57.221 E0.24732
G1 X177.331 Y56.954 E0.01541
G1 X173.046 Y52.669 E0.24732
G1 X173.313 Y52.402 E0.01541
G1 X177.598 Y56.687 E0.24732
G1 X177.865 Y56.420 E0.01541
G1 X173.580 Y52.135 E0.24732
G1 X173.847 Y51.868 E0.01541
G1 X178.132 Y56.153 E0.24732
G1 X178.399 Y55.887 E0.01541
G1 X174.113 Y51.601 E0.24732
G1 X174.380 Y51.334 E0.01541
G1 X178.666 Y55.620 E0.24732
G1 X178.933 Y55.353 E0.01541
G1 X174.647 Y51.067 E0.24732
G1 X174.914 Y50.800 E0.01541
G1 X179.200 Y55.086 E0.24732
G1 X179.467 Y54.819 E0.01541
G1 X175.181 Y50.533 E0.24732
G1 X175.448 Y50.266 E0.01541
G1 X179.734 Y54.552 E0.24732
G1 X180.000 Y54.285 E0.01541
G1 X175.715 Y50.000 E0.24732
G1 X175.912 Y49.803 E0.01134
G1 X176.194 Y50.086 E0.01632
G1 X176.265 Y50.015 E0.00407
G1 X180.387 Y54.138 E0.23792
G1 F8160
G1 X178.189 Y51.940 E-0.76000
G1 E-0.04000 F2100.00000
G1 Z0.800 F10200.000
G1 X139.495 Y124.300 F10200.000
G1 Z0.200 F10200.000
G1 E0.80000 F2100.00000
G1 F1800
G1 X105.870 Y90.675 E1.94062
G1 X105.870 Y91.209 E0.02179
G1 X138.791 Y124.130 E1.90001
G1 X138.257 Y124.130 E0.02179
G1 X105.870 Y91.743 E1.86919
G1 X105.870 Y92.277 E0.02179
G1 X137.723 Y124.130 E1.83838
G1 X137.189 Y124.130 E0.02179
G1 X105.870 Y92.811 E1.80757
G1 X105.870 Y93.345 E0.02179
G1 X136.655 Y124.130 E1.77675
G1 X136.121 Y124.130 E0.02179
G1 X105.870 Y93.879 E1.74594
G1 X105.870 Y94.413 E0.02179
G1 X135.587 Y124.130 E1.71512
G1 X135.053 Y124.130 E0.02179
G1 X105.870 Y94.947 E1.68431
G1 X105.870 Y95.480 E0.02179
G1 X134.520 Y124.130 E1.65349
G1 X133.986 Y124.130 E0.02179
G1 X105.870 Y96.014 E1.62268
G1 X105.870 Y96.548 E0.02179
G1 X133.452 Y124.130 E1.59186
G1 X132.918 Y124.130 E0.02179
G1 X105.870 Y97.082 E1.56105
G1 X105.870 Y97.616 E0.02179
G1 X132.384 Y124.130 E1.53023
G1 X131.850 Y124.130 E0.02179
G1 X105.870 Y98.150 E1.49942
G1 X105.870 Y98.684 E0.02179
G1 X131.316 Y124.130 E1.46860
G1 X130.782 Y124.130 E0.02179
G1 X105.870 Y99.218 E1.43779
G1 X105.870 Y99.752 E0.02179
G1 X130.248 Y124.130 E1.40698
G1 X129.714 Y124.130 E0.02179
G1 X105.870 Y100.286 E1.37616
G1 X105.870 Y100.820 E0.02179
G1 X129.180 Y124.130 E1.34535
G1 X128.646 Y124.130 E0.02179
G1 X105.870 Y101.354 E1.31453
G1 X105.870 Y101.887 E0.02179
G1 X128.113 Y124.130 E1.28372
G1 X127.579 Y124.130 E0.02179
